X:1
T:Title
%%score { ( 1 3 ) | ( 2 4 ) }
L:1/8
M:4/4
K:Ab
V:1 treble nm="Grand Piano"
V:3 treble 
V:2 bass 
V:4 bass 
V:1
 z4 z2 z[Q:1/4=92] [CE] | [CA][CA][CA][DB] [Ec][Ec][Ec][=EB] | [FA]2 [DF]2 [CE]3 [CE] | %3
 [CA][CA][EA]B ccdc | c2 z A, B3 B | [Ec][Ec]cd ec[Ec][=EB] | [FA]2 F2 E2 cd | %7
 e3 [FAd] [EAc]2 [DGB]2 |[M:3/4] [CEA]6 |[M:1/4] [EAc][EAc] |[M:4/4] [Gc]4 z4 | [EB]4 z4 | %12
 [A,C][CE][EA]B ccdc | B6[K:bass][K:treble] [EB]2 | [Ec][Ec]cB A3 [EG] | %15
 [DF][FB][FA][DF] [CE]3 [B,D] | [A,C][CE][CA][DB] c c2 [Fd] | %17
[M:17/16] cAB>[CA][CA]/-[CA]/-[CA]/-[CA]/-[CA]/-[CA]-<[CA] |] %18
V:2
 z4 z2 z [A,,A,] | [A,,E,][A,,E,][A,,E,][A,,E,] [A,,A,][A,,A,][A,,A,][C,A,] | %2
 [D,A,]2 [D,A,]2 [A,,A,]3 [A,,A,] | [A,,E,][A,,E,][C,A,][E,G,E] [A,E][A,E][G,B,E][A,E] | %4
 [F,A,=D]2 .[B,,F,]2 [E,G,_D]3 [E,G,E] | %5
 [A,,A,][A,,A,][K:treble][A,E][A,B,E] [A,CEA][K:bass][A,E][A,,A,][C,A,] | %6
 [D,A,]2 [F,A,D]2[K:treble] [A,C]2 [A,E][A,B,E] | [A,CA]3[K:bass] D, E,2 E,2 |[M:3/4] A,6 | %9
[M:1/4] A,A, |[M:4/4] E,E,E,E, E,2 z D | A,A,A,[A,CE] [A,CE]3 [A,,A,] | %12
 [A,,E,][A,,A,][C,A,][E,G,E] [A,E][A,E][G,B,E][A,E] | E3- [F,E-] [E,E-][D,E] .[C,G,]2 | %14
 [A,,A,][A,,A,][E,G,E][E,G,D] [F,A,C]3 [C,A,] | [D,A,][D,A,][D,D][D,A,] [A,,A,]3 [A,,E,] | %16
 [A,,E,][A,,A,][A,,A,][A,,A,] [A,E] [A,E]2 [D,A,] | %17
[M:17/16] [E,A,E][E,A,C][E,G,D]>[A,,E,][A,,E,]/-[A,,E,]/-[A,,E,]/-[A,,E,]/-[A,,E,]/-[A,,E,]-<[A,,E,] |] %18
V:3
 x8 | x8 | x8 | x8 | z2 [=DB]2 z4 | x8 | x8 | x8 |[M:3/4] x6 |[M:1/4] x2 | %10
[M:4/4] EEE[DGB] [DGB]2 [EGc][GB] | DDDA A3 [CE] | x8 | z[K:bass] F, G,4[K:treble] z B,, | x8 | %15
 x8 | x8 |[M:17/16] x17/2 |] %18
V:4
 x8 | x8 | x8 | x8 | x8 | x2[K:treble] x3[K:bass] x3 | x4[K:treble] x4 | x3[K:bass] x5 | %8
[M:3/4] x6 |[M:1/4] x2 |[M:4/4] z4 z2 E,2 | x8 | x8 | .[E,G,]2 z2 z4 | x8 | x8 | x8 | %17
[M:17/16] x17/2 |] %18

